X: 16700
T: Happy Hours
R: polka
M: 2/4
K: Gmajor
L:1/16
Bc^cd|:e2d2 c2B2 d2A2 ABcd|f3e e2^c2 e2B2 Bc^cd|
g3f a3g g2A3 ABcd|f2f2 f3e e2d2 Bc^cd|
e2d2 c2B2 d2A2 ABcd|f3e e2^c2 e2B2 Bc^cd|
g4 f2g2 a2a2 agfe|1 d^cde dcBA G4 Bc^cd:|2 d^cde dcBA G4d3e||
|:dBGB dBeB dBGB dBeB|cAFA cAdc BAGF GABc|
dBGB dBed dBGB d2^cd|1 fedc BdcA G4d3e:|2 fedc BdcA G4 F2G2||
A2FA fedc B2GB gfed|cdcB AGFE D2FB A2FG|
A2FA fedc B2GB gfed|1 cdcB AGFE D2FA d2FG:|2 cdcB AGFE D2FA d2d2||

